svgs/thin/bore-hole.svg

<svg xmlns="http://www.w3.org/2000/svg" viewBox="0 0 512 512"><!--! Font Awesome Pro 6.6.0 by @fontawesome - https://fontawesome.com License - https://fontawesome.com/license (Commercial License) Copyright 2024 Fonticons, Inc. --><path d="M256 0c4.4 0 8 3.6 8 8l0 264.5c31.6 3.9 56 30.9 56 63.5c0 35.3-28.7 64-64 64s-64-28.7-64-64c0-32.6 24.4-59.6 56-63.5L248 8c0-4.4 3.6-8 8-8zm0 288a48 48 0 1 0 0 96 48 48 0 1 0 0-96zM64 144c-26.5 0-48 21.5-48 48l0 256c0 26.5 21.5 48 48 48l384 0c26.5 0 48-21.5 48-48l0-256c0-26.5-21.5-48-48-48l-64 0c-8.8 0-16 7.2-16 16l0 192c0 61.9-50.1 112-112 112s-112-50.1-112-112l0-192c0-8.8-7.2-16-16-16l-64 0zM0 192c0-35.3 28.7-64 64-64l64 0c17.7 0 32 14.3 32 32l0 192c0 53 43 96 96 96s96-43 96-96l0-192c0-17.7 14.3-32 32-32l64 0c35.3 0 64 28.7 64 64l0 256c0 35.3-28.7 64-64 64L64 512c-35.3 0-64-28.7-64-64L0 192z"/></svg>

<svg xmlns="http://www.w3.org/2000/svg" viewBox="0 0 512 512"><!--! Font Awesome Pro 6.4.2 by @fontawesome - https://fontawesome.com License - https://fontawesome.com/license (Commercial License) Copyright 2023 Fonticons, Inc. --><path d="M256 0c4.4 0 8 3.6 8 8V272.5c31.6 3.9 56 30.9 56 63.5c0 35.3-28.7 64-64 64s-64-28.7-64-64c0-32.6 24.4-59.6 56-63.5V8c0-4.4 3.6-8 8-8zm0 288a48 48 0 1 0 0 96 48 48 0 1 0 0-96zM64 144c-26.5 0-48 21.5-48 48V448c0 26.5 21.5 48 48 48H448c26.5 0 48-21.5 48-48V192c0-26.5-21.5-48-48-48H384c-8.8 0-16 7.2-16 16V352c0 61.9-50.1 112-112 112s-112-50.1-112-112V160c0-8.8-7.2-16-16-16H64zM0 192c0-35.3 28.7-64 64-64h64c17.7 0 32 14.3 32 32V352c0 53 43 96 96 96s96-43 96-96V160c0-17.7 14.3-32 32-32h64c35.3 0 64 28.7 64 64V448c0 35.3-28.7 64-64 64H64c-35.3 0-64-28.7-64-64V192z"/></svg>
